X:1810
T:Ennis jig No2
O:england
R:double jig
M:6/8
L:1/8
K:D
f|afe dcd|edB A2A|d2d ede|faf efg|
afe dcd|edB A2A|d2d ede|fdc d2:|
d|f2f g2g|fgf fed|f2f g2g|afd e2d|
f2f g2g|fgf fed|f2f ede|fdc d2:|


